X:152
T:Jan de Paris
O:No 152 William Clarke of Feltwell
M:6/8
L:1/8
K:G
dc|B2B {c}BAB |d2 B {c}BAB| c2e g2e| d2 B {c}BAB| dcA {B}AGA| dBG {A}GFG| EGe d2c|B2 G G:||/
G d|d2c Bcd| e2 f g2a | b2 a gfe| d2c Bcd| e2 e ecA| d2d dBG|c2B c2 B | AFD Ddc|/
d2c Bcd| e2 f g2a | b2 a gfe| d2c Bcd| e2 e ecA| d2d dBG|c2B c2 B | AFD Ddc|/
B2B {c}BAB |d2 B {c}BAB| c2e g2e| d2 B {c}BAB| dcA {B}AGA| dBG {A}GFG| EGe d2c|B2 G G||

